X: 1
T: It's A Hard Road To Travel
M: 4/4
L: 1/8
R: reel
K: Ador
af|gfed BG ~G2|DGBG DGBd|gfed BABd|eBdB A2 af|
gfed BG ~G2|DGBG DG B/c/d|gfed BG B/c/d|eBdB A2 fg|
a2ba g2fg|a2ba ged2|ea~a2 gaba|gedB A2 fg|
a2ba ~g3b|agef gede|a3a b2ba|gedB A2||
